polaris-icons/icons/new-icons/CheckoutMajor.svg

<svg width="20" height="20" viewBox="0 0 20 20" fill="none" xmlns="http://www.w3.org/2000/svg">
<path fill-rule="evenodd" clip-rule="evenodd" d="M2.5 3.75C2.5 3.33579 2.83579 3 3.25 3H4.86199C5.73393 3 6.4704 3.6413 6.59405 4.5H16.25C16.4589 4.5 16.6583 4.58713 16.8003 4.74041C16.9422 4.89369 17.0138 5.09923 16.9978 5.30752L16.6398 9.96092C16.5296 11.3937 15.3349 12.5 13.8979 12.5H7.54696L7.63977 13.2796C7.65474 13.4053 7.76137 13.5 7.88801 13.5H14.25C14.6642 13.5 15 13.8358 15 14.25C15 14.6642 14.6642 15 14.25 15H7.88801C7.00153 15 6.25508 14.3371 6.15028 13.4569L5.11023 4.72045C5.09526 4.59469 4.98863 4.5 4.86199 4.5H3.25C2.83579 4.5 2.5 4.16421 2.5 3.75ZM7.36839 11H13.8979C14.5511 11 15.0942 10.4971 15.1443 9.84587L15.4401 6H6.77315L7.36839 11Z" fill="#4A4A4A"/>
<path d="M10 17C10 17.5523 9.55228 18 9 18C8.44772 18 8 17.5523 8 17C8 16.4477 8.44772 16 9 16C9.55228 16 10 16.4477 10 17Z" fill="#4A4A4A"/>
<path d="M15 17C15 17.5523 14.5523 18 14 18C13.4477 18 13 17.5523 13 17C13 16.4477 13.4477 16 14 16C14.5523 16 15 16.4477 15 17Z" fill="#4A4A4A"/>
</svg>

<svg viewBox="0 0 20 20" xmlns="http://www.w3.org/2000/svg"><path fill-rule="evenodd" d="M2.5 3.75a.75.75 0 0 1 .75-.75h1.612a1.75 1.75 0 0 1 1.732 1.5h9.656a.75.75 0 0 1 .748.808l-.358 4.653a2.75 2.75 0 0 1-2.742 2.539h-6.351l.093.78a.25.25 0 0 0 .248.22h6.362a.75.75 0 0 1 0 1.5h-6.362a1.75 1.75 0 0 1-1.738-1.543l-1.04-8.737a.25.25 0 0 0-.248-.22h-1.612a.75.75 0 0 1-.75-.75Zm4.868 7.25h6.53a1.25 1.25 0 0 0 1.246-1.154l.296-3.846h-8.667l.595 5Z" fill="#5C5F62"/><path d="M10 17a1 1 0 1 1-2 0 1 1 0 0 1 2 0Z" fill="#5C5F62"/><path d="M15 17a1 1 0 1 1-2 0 1 1 0 0 1 2 0Z" fill="#5C5F62"/></svg>
